style-guide/assets/xd-icons-map-small.svg

<?xml version="1.0" encoding="UTF-8"?>
<svg width="18px" height="18px" viewBox="0 0 18 18" version="1.1" xmlns="http://www.w3.org/2000/svg" xmlns:xlink="http://www.w3.org/1999/xlink">
    <!-- Generator: Sketch 51.3 (57544) - http://www.bohemiancoding.com/sketch -->
    <title>map</title>
    <desc>Created with Sketch.</desc>
    <defs>
        <path d="M16,13.3253107 L13,14.5252297 L13,4.68809251 L16,3.48817359 L16,13.3253107 Z M11,14.5252297 L8,13.3253107 L8,3.48817359 L11,4.68809251 L11,14.5252297 Z M6,13.3253107 L3,14.5252297 L3,4.68809251 L6,3.48817359 L6,13.3253107 Z M17.561,1.18624753 C17.286,1.00041496 16.937,0.962449164 16.628,1.08533845 L12,2.93567137 L7.376,1.08833574 C7.343,1.07434835 7.309,1.06335825 7.275,1.05336725 L7.274,1.05336725 C7.274,1.05236815 7.273,1.05236815 7.272,1.05136905 L7.271,1.05136905 C7.183,1.02639155 7.094,1.01440236 7.005,1.01440236 L7.004,1.01440236 L7,1.01440236 L6.996,1.01440236 C6.929,0.974438362 6.809,1.02739065 6.718,1.05536545 L6.716,1.05536545 C6.715,1.05636455 6.714,1.05636455 6.713,1.05636455 C6.684,1.06535645 6.653,1.07534745 6.624,1.08733665 L1.628,3.08353815 C1.249,3.23540133 1,3.60406917 1,4.01170191 L1,16.0009001 C1,16.3326013 1.165,16.6423223 1.439,16.8281548 C1.714,17.0139874 2.063,17.0509541 2.372,16.9280648 L7,15.078731 L11.624,16.9260666 C11.657,16.9390549 11.691,16.9510441 11.725,16.9610351 L11.726,16.9610351 C11.726,16.9620342 11.727,16.9620342 11.728,16.9630333 L11.729,16.9630333 C11.817,16.9870117 11.933,16.9680288 11.996,17 L12,17 L12.004,17 L12.005,17 C12.098,17 12.191,16.9860126 12.282,16.9590369 C12.282,16.960036 12.283,16.9590369 12.284,16.9590369 C12.285,16.9580378 12.286,16.9580378 12.287,16.9580378 C12.316,16.9490459 12.347,16.9380558 12.376,16.9260666 L17.372,14.9298651 C17.751,14.7780019 18,14.4103332 18,14.0027004 L18,2.01350221 C18,1.68180106 17.835,1.371081 17.561,1.18624753 Z" id="path-1"></path>
    </defs>
    <g id="map" stroke="none" stroke-width="1" fill="none" fill-rule="evenodd">
        <mask id="mask-2" fill="white">
            <use xlink:href="#path-1"></use>
        </mask>
        <use id="icons/18px/Map" fill="#000000" xlink:href="#path-1"></use>
    </g>
</svg>

<svg viewBox="0 0 18 18" xmlns="http://www.w3.org/2000/svg">
    <path d="M16 13.325l-3 1.2V4.688l3-1.2v9.837zm-5 1.2l-3-1.2V3.488l3 1.2v9.837zm-5-1.2l-3 1.2V4.688l3-1.2v9.837zM17.561 1.186a1.003 1.003 0 0 0-.933-.1L12 2.935 7.376 1.088a.929.929 0 0 0-.101-.035h-.001l-.002-.002h-.001a.971.971 0 0 0-.266-.037H6.996c-.067-.04-.187.013-.278.041h-.002l-.003.001-.089.031-4.996 1.997c-.379.151-.628.52-.628.928V16a1 1 0 0 0 1.372.927L7 15.078l4.624 1.848c.033.013.067.025.101.035h.001l.002.002h.001c.088.024.204.005.267.037H12.005a.974.974 0 0 0 .277-.041h.002l.003-.001c.029-.009.06-.02.089-.032l4.996-1.996a1 1 0 0 0 .628-.927V2.013a.999.999 0 0 0-.439-.827z"/>
</svg>
